X: 34686
T: Road To Ennis, The
R: reel
M: 4/4
K: Bminor
BA|:FBfe dcBd|cded cBAB|Fffe dcBA|FB (3BBB FB (3BBB|
FBfe dcBd|cded cBAc|(3ddd dc defg|afeg fddB:|afeg fddc|
|:(3ddd dc dfed|(3cBA eA fAeA|(3ddd dc defa|gfeg fddA|
dfaf dfaf|cefe cefe|Bcde fefg|afeg fddc:|afeg fd (3ddd:|

